Sweet-Rainbow/icons/lazarus.svg

<?xml version="1.0" encoding="UTF-8" standalone="no"?>
<!-- Generator: Gravit.io -->

<svg
   xmlns:dc="http://purl.org/dc/elements/1.1/"
   xmlns:cc="http://creativecommons.org/ns#"
   xmlns:rdf="http://www.w3.org/1999/02/22-rdf-syntax-ns#"
   xmlns:svg="http://www.w3.org/2000/svg"
   xmlns="http://www.w3.org/2000/svg"
   xmlns:sodipodi="http://sodipodi.sourceforge.net/DTD/sodipodi-0.dtd"
   xmlns:inkscape="http://www.inkscape.org/namespaces/inkscape"
   style="isolation:isolate"
   viewBox="0 0 36 36"
   width="48"
   height="48"
   version="1.1"
   id="svg11"
   sodipodi:docname="lazarus.svg"
   inkscape:version="0.92.4 (5da689c313, 2019-01-14)">
  <metadata
     id="metadata17">
    <rdf:RDF>
      <cc:Work
         rdf:about="">
        <dc:format>image/svg+xml</dc:format>
        <dc:type
           rdf:resource="http://purl.org/dc/dcmitype/StillImage" />
        <dc:title></dc:title>
      </cc:Work>
    </rdf:RDF>
  </metadata>
  <defs
     id="defs15" />
  <sodipodi:namedview
     pagecolor="#ffffff"
     bordercolor="#666666"
     borderopacity="1"
     objecttolerance="10"
     gridtolerance="10"
     guidetolerance="10"
     inkscape:pageopacity="0"
     inkscape:pageshadow="2"
     inkscape:window-width="640"
     inkscape:window-height="480"
     id="namedview13"
     showgrid="false"
     inkscape:zoom="29.365243"
     inkscape:cx="25.325443"
     inkscape:cy="32"
     inkscape:current-layer="svg11"
     units="px" />
  <linearGradient
     id="_lgradient_27"
     x1="0"
     y1="0.5"
     x2="1"
     y2="0.5"
     gradientTransform="matrix(46.808,0,0,47,0.564,0.5)"
     gradientUnits="userSpaceOnUse">
    <stop
       offset="0%"
       stop-opacity="1"
       style="stop-color:rgb(84,51,255)"
       id="stop2" />
    <stop
       offset="51.73913043478261%"
       stop-opacity="1"
       style="stop-color:rgb(32,189,255)"
       id="stop4" />
    <stop
       offset="98.26086956521739%"
       stop-opacity="1"
       style="stop-color:rgb(165,254,203)"
       id="stop6" />
  </linearGradient>
  <g
     id="g825"
     transform="matrix(0.76595696,0,0,0.76595696,-0.35893112,-0.38295552)">
    <path
       id="path9"
       d="m 32.917,6.952 v 0 C 31.873,6.403 31.47,5.109 32.019,4.064 v 0 C 32.568,3.02 33.862,2.617 34.907,3.166 v 0 c 4.449,2.342 8.042,6.053 10.235,10.577 v 0 c 0.519,1.063 0.078,2.345 -0.984,2.861 v 0 c -1.063,0.517 -2.347,0.074 -2.866,-0.989 v 0 C 39.495,11.904 36.564,8.877 32.917,6.952 Z M 23.817,4.5 v 0 c 1.103,-0.006 1.995,-0.906 1.99,-2.01 v 0 C 25.801,1.386 24.9,0.494 23.797,0.5 v 0 c -5.76,0.03 -11.31,2.18 -15.59,6.03 -4.28,3.86 -7,9.15 -7.63,14.88 v 0 c -0.122,1.098 0.671,2.089 1.77,2.21 v 0 c 1.098,0.121 2.088,-0.672 2.21,-1.77 v 0 c 0.52,-4.75 2.78,-9.15 6.33,-12.34 3.55,-3.2 8.15,-4.98 12.93,-5.01 z M 5.737,31 v 0 C 5.339,29.968 4.179,29.453 3.147,29.85 v 0 c -1.033,0.397 -1.548,1.558 -1.15,2.59 v 0 c 1.91,4.93 5.42,9.08 9.97,11.78 v 0 c 0.949,0.563 2.177,0.249 2.74,-0.7 v 0 c 0.563,-0.949 0.249,-2.177 -0.7,-2.74 v 0 C 10.227,38.54 7.317,35.1 5.737,31 Z m 17.57,12.49 v 0 c -1.104,-0.017 -2.014,0.866 -2.03,1.97 v 0 c -0.017,1.104 0.866,2.013 1.97,2.03 v 0 l 0.66,0.01 c 0.01,0 0.02,0 0.03,0 5.91,0 11.61,-2.23 15.95,-6.24 4.34,-4.01 7.02,-9.52 7.48,-15.41 v 0 c 0.082,-1.098 -0.742,-2.062 -1.84,-2.15 v 0 c -1.099,-0.088 -2.062,0.736 -2.15,1.84 v 0 c -0.38,4.88 -2.6,9.45 -6.2,12.78 -3.6,3.33 -8.32,5.18 -13.22,5.18 z M 24.191,10 c -0.189,0 -0.151,0.701 0.047,0.86 0.222,0.179 0.548,0.805 0.644,1.238 l 0.076,0.338 -0.613,0.123 c -1.458,0.294 -1.742,1.251 -0.801,2.701 0.331,0.509 0.334,0.523 0.27,1.627 -0.048,0.828 -0.024,1.25 0.097,1.647 0.189,0.615 0.714,1.182 1.264,1.361 0.609,0.198 2.263,0.103 2.877,-0.164 0.672,-0.293 1.545,-1.162 1.789,-1.781 0.287,-0.73 0.179,-1.737 -0.279,-2.616 C 29.122,14.49 27.973,13.342 27.175,12.95 26.753,12.742 26.555,12.564 26.413,12.268 26.212,11.845 24.404,10 24.191,10 Z m -7.953,2 c -0.025,-0.002 -0.05,0.008 -0.071,0.028 -0.218,0.208 -0.395,1.303 -0.375,2.326 0.019,0.968 -0.007,1.167 -0.209,1.49 -0.668,1.072 -0.782,3.038 -0.24,4.152 0.48,0.986 1.275,1.586 2.486,1.874 0.846,0.201 1.418,0.173 2.213,-0.104 2.192,-0.763 2.571,-2.252 0.998,-3.93 -0.637,-0.68 -0.935,-1.233 -0.935,-1.736 0,-0.612 -0.235,-1.212 -0.631,-1.615 -0.357,-0.363 -0.376,-0.368 -1.059,-0.311 -0.382,0.033 -0.834,0.091 -1.002,0.131 -0.278,0.066 -0.322,0.032 -0.523,-0.392 C 16.769,13.657 16.669,13.227 16.667,12.955 16.665,12.536 16.414,12.016 16.238,12 Z m 19.382,4.004 c -0.236,-0.052 -0.31,0.558 -0.121,1 0.088,0.204 0.146,0.549 0.129,0.768 l -0.029,0.398 -0.502,0.01 c -0.391,0.009 -0.58,0.077 -0.853,0.309 -0.321,0.27 -0.809,1.188 -0.811,1.523 -10e-4,0.074 -0.298,0.796 -0.662,1.602 -0.364,0.806 -0.692,1.625 -0.731,1.82 -0.205,1.047 0.365,1.833 1.729,2.379 0.576,0.23 1.177,0.248 1.83,0.055 1.061,-0.315 1.743,-0.911 2.156,-1.883 0.218,-0.513 0.249,-0.72 0.244,-1.653 -0.005,-1.208 -0.211,-1.971 -0.767,-2.841 -0.174,-0.272 -0.387,-0.8 -0.473,-1.174 -0.175,-0.766 -0.912,-2.263 -1.139,-2.313 z m -25.492,6.998 c -0.026,-0.006 -0.046,-10e-4 -0.06,0.014 -0.209,0.224 0.105,2.402 0.422,2.922 0.077,0.127 0.188,0.562 0.248,0.965 0.27,1.826 1.544,3.531 2.99,4.006 0.494,0.162 1.565,0.104 2.258,-0.123 0.573,-0.188 0.767,-0.319 1.199,-0.805 0.897,-1.01 1.059,-2.006 0.457,-2.815 -0.159,-0.214 -0.646,-0.614 -1.08,-0.888 -0.435,-0.275 -1.191,-0.779 -1.68,-1.123 -1.432,-1.008 -1.584,-1.103 -1.978,-1.221 -0.501,-0.149 -1.013,0.009 -1.43,0.443 l -0.326,0.34 -0.205,-0.361 C 10.83,24.157 10.738,23.893 10.738,23.772 10.737,23.554 10.31,23.045 10.128,23.002 Z M 27.505,25 c -0.608,0.004 -1.31,0.108 -2.119,0.313 -2.287,0.58 -3.369,1.27 -3.861,2.465 -0.213,0.517 -0.23,0.694 -0.172,1.683 0.059,1.007 0.043,1.154 -0.182,1.657 -0.228,0.51 -0.489,0.795 -1.697,1.863 -0.384,0.339 -0.418,0.419 -0.461,1.041 -0.04,0.579 -0.002,0.773 0.275,1.392 0.593,1.324 1.664,2.211 3.004,2.487 0.635,0.13 1.054,0.131 2.143,0.004 4.234,-0.496 9.102,-2.101 10.492,-3.459 0.727,-0.711 1.016,-1.366 1.065,-2.407 0.092,-1.985 -0.758,-3.177 -2.276,-3.183 C 32.528,28.851 31.333,28.124 30.843,27.11 30.48,26.359 29.744,25.611 29.056,25.293 28.626,25.095 28.113,24.997 27.505,25 Z"
       style="fill:url(#_lgradient_27);fill-rule:evenodd"
       inkscape:connector-curvature="0" />
  </g>
</svg>

<?xml version="1.0" encoding="UTF-8" standalone="no"?><!-- Generator: Gravit.io --><svg xmlns="http://www.w3.org/2000/svg" xmlns:xlink="http://www.w3.org/1999/xlink" style="isolation:isolate" viewBox="0 0 48 48" width="48pt" height="48pt"><linearGradient id="_lgradient_27" x1="0" y1="0.5" x2="1" y2="0.5" gradientTransform="matrix(46.808,0,0,47,0.564,0.5)" gradientUnits="userSpaceOnUse"><stop offset="0%" stop-opacity="1" style="stop-color:rgb(84,51,255)"/><stop offset="51.73913043478261%" stop-opacity="1" style="stop-color:rgb(32,189,255)"/><stop offset="98.26086956521739%" stop-opacity="1" style="stop-color:rgb(165,254,203)"/></linearGradient><path d=" M 32.917 6.952 L 32.917 6.952 C 31.873 6.403 31.47 5.109 32.019 4.064 L 32.019 4.064 C 32.568 3.02 33.862 2.617 34.907 3.166 L 34.907 3.166 C 39.356 5.508 42.949 9.219 45.142 13.743 L 45.142 13.743 C 45.661 14.806 45.22 16.088 44.158 16.604 L 44.158 16.604 C 43.095 17.121 41.811 16.678 41.292 15.615 L 41.292 15.615 C 39.495 11.904 36.564 8.877 32.917 6.952 L 32.917 6.952 L 32.917 6.952 L 32.917 6.952 Z  M 23.817 4.5 L 23.817 4.5 C 24.92 4.494 25.812 3.594 25.807 2.49 L 25.807 2.49 C 25.801 1.386 24.9 0.494 23.797 0.5 L 23.797 0.5 C 18.037 0.53 12.487 2.68 8.207 6.53 C 3.927 10.39 1.207 15.68 0.577 21.41 L 0.577 21.41 C 0.455 22.508 1.248 23.499 2.347 23.62 L 2.347 23.62 C 3.445 23.741 4.435 22.948 4.557 21.85 L 4.557 21.85 C 5.077 17.1 7.337 12.7 10.887 9.51 C 14.437 6.31 19.037 4.53 23.817 4.5 L 23.817 4.5 L 23.817 4.5 L 23.817 4.5 Z  M 5.737 31 L 5.737 31 C 5.339 29.968 4.179 29.453 3.147 29.85 L 3.147 29.85 C 2.114 30.247 1.599 31.408 1.997 32.44 L 1.997 32.44 C 3.907 37.37 7.417 41.52 11.967 44.22 L 11.967 44.22 C 12.916 44.783 14.144 44.469 14.707 43.52 L 14.707 43.52 C 15.27 42.571 14.956 41.343 14.007 40.78 L 14.007 40.78 C 10.227 38.54 7.317 35.1 5.737 31 L 5.737 31 L 5.737 31 Z  M 23.307 43.49 L 23.307 43.49 C 22.203 43.473 21.293 44.356 21.277 45.46 L 21.277 45.46 C 21.26 46.564 22.143 47.473 23.247 47.49 L 23.247 47.49 L 23.907 47.5 C 23.917 47.5 23.927 47.5 23.937 47.5 C 29.847 47.5 35.547 45.27 39.887 41.26 C 44.227 37.25 46.907 31.74 47.367 25.85 L 47.367 25.85 C 47.449 24.752 46.625 23.788 45.527 23.7 L 45.527 23.7 C 44.428 23.612 43.465 24.436 43.377 25.54 L 43.377 25.54 C 42.997 30.42 40.777 34.99 37.177 38.32 C 33.577 41.65 28.857 43.5 23.957 43.5 L 23.307 43.49 L 23.307 43.49 Z  M 24.191 10 C 24.002 10 24.04 10.701 24.238 10.86 C 24.46 11.039 24.786 11.665 24.882 12.098 L 24.958 12.436 L 24.345 12.559 C 22.887 12.853 22.603 13.81 23.544 15.26 C 23.875 15.769 23.878 15.783 23.814 16.887 C 23.766 17.715 23.79 18.137 23.911 18.534 C 24.1 19.149 24.625 19.716 25.175 19.895 C 25.784 20.093 27.438 19.998 28.052 19.731 C 28.724 19.438 29.597 18.569 29.841 17.95 C 30.128 17.22 30.02 16.213 29.562 15.334 C 29.122 14.49 27.973 13.342 27.175 12.95 C 26.753 12.742 26.555 12.564 26.413 12.268 C 26.212 11.845 24.404 10 24.191 10 L 24.191 10 Z  M 16.238 12 C 16.213 11.998 16.188 12.008 16.167 12.028 C 15.949 12.236 15.772 13.331 15.792 14.354 C 15.811 15.322 15.785 15.521 15.583 15.844 C 14.915 16.916 14.801 18.882 15.343 19.996 C 15.823 20.982 16.618 21.582 17.829 21.87 C 18.675 22.071 19.247 22.043 20.042 21.766 C 22.234 21.003 22.613 19.514 21.04 17.836 C 20.403 17.156 20.105 16.603 20.105 16.1 C 20.105 15.488 19.87 14.888 19.474 14.485 C 19.117 14.122 19.098 14.117 18.415 14.174 C 18.033 14.207 17.581 14.265 17.413 14.305 C 17.135 14.371 17.091 14.337 16.89 13.913 C 16.769 13.657 16.669 13.227 16.667 12.955 C 16.665 12.536 16.414 12.016 16.238 12 L 16.238 12 Z  M 35.62 16.004 C 35.384 15.952 35.31 16.562 35.499 17.004 C 35.587 17.208 35.645 17.553 35.628 17.772 L 35.599 18.17 L 35.097 18.18 C 34.706 18.189 34.517 18.257 34.244 18.489 C 33.923 18.759 33.435 19.677 33.433 20.012 C 33.432 20.086 33.135 20.808 32.771 21.614 C 32.407 22.42 32.079 23.239 32.04 23.434 C 31.835 24.481 32.405 25.267 33.769 25.813 C 34.345 26.043 34.946 26.061 35.599 25.868 C 36.66 25.553 37.342 24.957 37.755 23.985 C 37.973 23.472 38.004 23.265 37.999 22.332 C 37.994 21.124 37.788 20.361 37.232 19.491 C 37.058 19.219 36.845 18.691 36.759 18.317 C 36.584 17.551 35.847 16.054 35.62 16.004 L 35.62 16.004 Z  M 10.128 23.002 C 10.102 22.996 10.082 23.001 10.068 23.016 C 9.859 23.24 10.173 25.418 10.49 25.938 C 10.567 26.065 10.678 26.5 10.738 26.903 C 11.008 28.729 12.282 30.434 13.728 30.909 C 14.222 31.071 15.293 31.013 15.986 30.786 C 16.559 30.598 16.753 30.467 17.185 29.981 C 18.082 28.971 18.244 27.975 17.642 27.166 C 17.483 26.952 16.996 26.552 16.562 26.278 C 16.127 26.003 15.371 25.499 14.882 25.155 C 13.45 24.147 13.298 24.052 12.904 23.934 C 12.403 23.785 11.891 23.943 11.474 24.377 L 11.148 24.717 L 10.943 24.356 C 10.83 24.157 10.738 23.893 10.738 23.772 C 10.737 23.554 10.31 23.045 10.128 23.002 L 10.128 23.002 Z  M 27.505 25 C 26.897 25.004 26.195 25.108 25.386 25.313 C 23.099 25.893 22.017 26.583 21.525 27.778 C 21.312 28.295 21.295 28.472 21.353 29.461 C 21.412 30.468 21.396 30.615 21.171 31.118 C 20.943 31.628 20.682 31.913 19.474 32.981 C 19.09 33.32 19.056 33.4 19.013 34.022 C 18.973 34.601 19.011 34.795 19.288 35.414 C 19.881 36.738 20.952 37.625 22.292 37.901 C 22.927 38.031 23.346 38.032 24.435 37.905 C 28.669 37.409 33.537 35.804 34.927 34.446 C 35.654 33.735 35.943 33.08 35.992 32.039 C 36.084 30.054 35.234 28.862 33.716 28.856 C 32.528 28.851 31.333 28.124 30.843 27.11 C 30.48 26.359 29.744 25.611 29.056 25.293 C 28.626 25.095 28.113 24.997 27.505 25 L 27.505 25 Z " fill-rule="evenodd" fill="url(#_lgradient_27)"/></svg>
